X:1
T:Title
%%score { ( 1 4 ) | ( 2 3 ) }
L:1/8
Q:1/4=124
M:4/4
K:F
V:1 treble nm="Grand Piano"
V:4 treble 
V:2 bass 
V:3 bass 
V:1
 [A,C]4 [A,F]4 | [B,D]4 [B,G]4 | [B,F]2 E2 [B,D]2 E2 | [B,D]4 [A,C]2 z2 | [A,C]4 [A,F]4 | %5
w: Howard~E.~Smith *|||||
 [B,D]4 [B,G]4 | [=B,A]2 G2 [B,G]2 A2 | [B,G]6 z2 | [A,C]4 [A,F]4 | [B,D]4 [B,G]4 | %10
w: |||||
 [B,F]2 E2 [B,D]2 E2 | [B,D]4 [A,C]2 z2 | [A,F]4 [CA]4 | [Dc]4 [DB]4 | [CA]2 G2 [B,D]2 E2 | %15
w: |||||
 [A,F]6 z2 | [Ac]4[K:bass] z4 | [Bc]4[K:bass] z4 | z4 [Bc]4[K:bass] | z4 [Ac]4[K:bass] | %20
w: |||||
 [Ac]4[K:bass] z4 | [Bd]4 z4 | [Bd]f[ce]d [Ac]2 [G,B,CE]2 | [CF]6 z2 |] %24
w: ||||
V:2
 F,,2 C,2 F,2 A,,2 | B,,2 D,2 G,2 B,,2 | z2 B,2 z2 B,2 | F,,2 C,2 F,2 C,2 | F,,2 C,2 F,2 A,,2 | %5
 B,,2 D,2 G,2 B,,2 | z2 =B,2 z2 B,2 | C,2 B,,2 A,,2 G,,2 | F,,2 C,2 F,2 A,,2 | B,,2 D,2 G,2 B,,2 | %10
 z2 B,2 z2 B,2 | F,,2 C,2 F,2 A,,2 | F,,2 C,2 F,2 A,2 | B,2 G,2 D,2 B,,2 | z2 B,2 z2 B,2 | %15
 F,2 C,2 F,,2 z2 | F,,C,C,F F,,C, .C,2 | G,,C,C,F G,,C, .C,2 | %18
 C,,[C,E,B,][C,E,B,][K:treble]B[K:bass] C,,C, .C,2 | %19
 F,,[C,F,A,][C,F,A,][K:treble]B[K:bass] F,,C, .C,2 | F,,C,C,F F,,C, .C,2 | G,,D,D,G G,,D, .D,2 | %22
 z[K:treble] d z B[K:bass] C,2 E,2 | F,C,A,,C, F,,2 z2 |] %24
V:3
 x8 | x8 | C,4 C,4 | x8 | x8 | x8 | G,,4 G,,4 | x8 | x8 | x8 | C,4 C,4 | x8 | x8 | x8 | C,4 C,4 | %15
 x8 | x8 | x8 | x3[K:treble] x[K:bass] x4 | x3[K:treble] x[K:bass] x4 | x8 | x8 | %22
 B,,2[K:treble] [G,B,D]2[K:bass] z4 | x8 |] %24
V:4
 x8 | x8 | x8 | x8 | x8 | x8 | x8 | x8 | x8 | x8 | x8 | x8 | x8 | x8 | x8 | x8 | %16
 z[K:bass] [F,A,] .[F,A,]2 E[F,A,D] .[F,A,C]2 | z[K:bass] [E,B,] .[E,B,]2 E[E,B,D] .[E,B,C]2 | %18
 [cd][B=B][_Bc]d z[K:bass] [E,B,] .[E,B,]2 | [Ac][_A=B][=Ac]d z[K:bass] [F,A,] .[F,A,]2 | %20
 z[K:bass] [F,A,] .[F,A,]2 E[F,A,D] .[F,A,C]2 | z [G,B,] .[G,B,]2 F[G,B,E] .[G,B,D]2 | x8 | %23
 .A,2 z2 z4 |] %24

